Bloom-Colors/16x16/places/folder-mail.svg

<?xml version="1.0" encoding="UTF-8"?>
<svg width="16" height="16" version="1.1" viewBox="0 0 16 16" xmlns="http://www.w3.org/2000/svg" xmlns:cc="http://creativecommons.org/ns#" xmlns:dc="http://purl.org/dc/elements/1.1/" xmlns:rdf="http://www.w3.org/1999/02/22-rdf-syntax-ns#">
 <metadata>
  <rdf:RDF>
   <cc:Work rdf:about="">
    <dc:format>image/svg+xml</dc:format>
    <dc:type rdf:resource="http://purl.org/dc/dcmitype/StillImage"/>
    <dc:title/>
   </cc:Work>
  </rdf:RDF>
 </metadata>
 <defs>
  <style id="current-color-scheme" type="text/css">.ColorScheme-Text { color:#444444; } .ColorScheme-Highlight { color:#5294e2; }</style>
 </defs>
 <path class="ColorScheme-Text" d="m15 8.875v-0.875c0-3.8657-3.134-7-7-7s-7 3.134-7 7 3.134 7 7 7h4.135s0.865-0.124 0.865-1-0.865-1-0.865-1h-4.135c-2.7614 0-5-2.239-5-5 0-2.7614 2.2386-5 5-5 2.761 0 5 2.2386 5 5-2e-3 0.6887-0.146 1.3696-0.424 2h-1.117c0.353-0.6076 0.539-1.2974 0.541-2 0-2.2091-1.791-4-4-4-2.2091 0-4 1.7909-4 4 0 2.209 1.7909 4 4 4h4.275c1.462 0 2.725-1.675 2.725-3.125zm-7-2.875c1.1046 0 2 0.8954 2 2s-0.8954 2-2 2-2-0.8954-2-2 0.8954-2 2-2z" fill="#808080"/>
</svg>

<svg xmlns="http://www.w3.org/2000/svg" width="16" height="16" version="1.1">
 <defs>
  <style id="current-color-scheme" type="text/css">
   .ColorScheme-Text { color:#666666; } .ColorScheme-Highlight { color:#4285f4; }
  </style>
 </defs>
 <path style="fill:currentColor" class="ColorScheme-Text" d="M 15,8.875 V 8 C 15,4.1343 11.866,1 8,1 4.134,1 1,4.134 1,8 1,11.866 4.134,15 8,15 H 12.135 C 12.135,15 13,14.876 13,14 13,13.124 12.135,13 12.135,13 H 8 C 5.2386,13 3,10.761 3,8 3,5.2386 5.2386,3 8,3 10.761,3 13,5.2386 13,8 12.998,8.6887 12.854,9.3696 12.576,10 H 11.459 C 11.812,9.3924 11.998,8.7026 12,8 12,5.7909 10.209,4 8,4 5.7909,4 4,5.7909 4,8 4,10.209 5.7909,12 8,12 H 12.275 C 13.737,12 15,10.325 15,8.875 Z M 8,6 C 9.1046,6 10,6.8954 10,8 10,9.1046 9.1046,10 8,10 6.8954,10 6,9.1046 6,8 6,6.8954 6.8954,6 8,6 Z"/>
</svg>
